assets/House/Flat/house_flat.svg

<svg width="32" height="32" viewBox="0 0 32 32" fill="none" xmlns="http://www.w3.org/2000/svg">
<path fill-rule="evenodd" clip-rule="evenodd" d="M10 8.83354V3.52275C10 3.23233 9.75879 3 9.46734 3H6.54271C6.24121 3 6 3.23233 6 3.52275V12.1687L5 13.0025V29.0025H27V14.0025L16.07 3.77246L10 8.83354Z" fill="#F3C07B"/>
<path d="M15.92 27.0025H8.08C8.04 27.0025 8 26.9625 8 26.9225V16.3925C8 15.6425 8.61 15.0325 9.36 15.0325H14.65C15.4 15.0325 16.01 15.6425 16.01 16.3925V26.9225C16 26.9625 15.96 27.0025 15.92 27.0025Z" fill="#8C5543"/>
<path d="M14.5 21.0024C14.7761 21.0024 15 20.7786 15 20.5024C15 20.2263 14.7761 20.0024 14.5 20.0024C14.2239 20.0024 14 20.2263 14 20.5024C14 20.7786 14.2239 21.0024 14.5 21.0024Z" fill="#402A32"/>
<path d="M15.96 28.0024H8C7.45 28.0024 7 27.5524 7 27.0024C7 26.4524 7.45 26.0024 8 26.0024H15.96C16.51 26.0024 16.96 26.4524 16.96 27.0024C16.96 27.5524 16.51 28.0024 15.96 28.0024Z" fill="#D3D3D3"/>
<path d="M30 29.0024H2V28.9124C2 27.8524 2.85 27.0024 3.91 27.0024H28.09C29.14 27.0024 30 27.8524 30 28.9124V29.0024Z" fill="#00F397"/>
<path d="M16.88 2.3525L29.64 14.9225C30.12 15.3925 30.12 16.1525 29.64 16.6125C29.17 17.0825 28.4 17.0825 27.92 16.6125L16.02 4.8925L4.08 16.6525C3.61 17.1225 2.84 17.1225 2.36 16.6525C1.88 16.1825 1.88 15.4225 2.36 14.9525L15.16 2.3525C15.63 1.8825 16.4 1.8825 16.88 2.3525Z" fill="#F8312F"/>
<path d="M23.14 21.0024H18.86C18.38 21.0024 18 20.6224 18 20.1424V15.8624C18 15.3924 18.38 15.0024 18.86 15.0024H23.14C23.61 15.0024 24 15.3824 24 15.8624V20.1424C24 20.6224 23.62 21.0024 23.14 21.0024Z" fill="#83CBFF"/>
</svg>

<svg xmlns="http://www.w3.org/2000/svg" width="32" height="32" fill="none"><path fill="#F3C07B" fill-rule="evenodd" d="M10 8.834V3.523A.528.528 0 0 0 9.467 3H6.543A.53.53 0 0 0 6 3.523v8.646l-1 .833v16h22v-15L16.07 3.772 10 8.834Z" clip-rule="evenodd"/><path fill="#8C5543" d="M15.92 27.003H8.08c-.04 0-.08-.04-.08-.08v-10.53c0-.75.61-1.36 1.36-1.36h5.29c.75 0 1.36.61 1.36 1.36v10.53c-.01.04-.05.08-.09.08Z"/><path fill="#402A32" d="M14.5 21.002a.5.5 0 1 0 0-1 .5.5 0 0 0 0 1Z"/><path fill="#D3D3D3" d="M15.96 28.002H8c-.55 0-1-.45-1-1s.45-1 1-1h7.96c.55 0 1 .45 1 1s-.45 1-1 1Z"/><path fill="#00F397" d="M30 29.002H2v-.09c0-1.06.85-1.91 1.91-1.91h24.18c1.05 0 1.91.85 1.91 1.91v.09Z"/><path fill="#F8312F" d="m16.88 2.353 12.76 12.57c.48.47.48 1.23 0 1.69-.47.47-1.24.47-1.72 0l-11.9-11.72-11.94 11.76c-.47.47-1.24.47-1.72 0s-.48-1.23 0-1.7l12.8-12.6c.47-.47 1.24-.47 1.72 0Z"/><path fill="#83CBFF" d="M23.14 21.002h-4.28c-.48 0-.86-.38-.86-.86v-4.28c0-.47.38-.86.86-.86h4.28c.47 0 .86.38.86.86v4.28c0 .48-.38.86-.86.86Z"/></svg>
